packages/icons/web/flag_br_small.svg

<svg width="24" height="24" viewBox="0 0 24 24" fill="none" xmlns="http://www.w3.org/2000/svg">
<path fill-rule="evenodd" clip-rule="evenodd" d="M5.5 6H18.5C19.6046 6 20.5 6.89543 20.5 8V16C20.5 17.1046 19.6046 18 18.5 18H5.5C4.39543 18 3.5 17.1046 3.5 16V8C3.5 6.89543 4.39543 6 5.5 6ZM5.5 6.5C4.67157 6.5 4 7.17157 4 8V16C4 16.8284 4.67157 17.5 5.5 17.5H18.5C19.3284 17.5 20 16.8284 20 16V8C20 7.17157 19.3284 6.5 18.5 6.5H5.5Z" fill="#D8DDE1"/>
<g clip-path="url(#clip0)">
<path fill-rule="evenodd" clip-rule="evenodd" d="M4 15.8828C4 16.7759 4.716 17.5 5.6 17.5H18.4C19.2837 17.5 20 16.7761 20 15.8828V8.11716C20 7.22406 19.284 6.5 18.4 6.5H5.6C4.71632 6.5 4 7.2239 4 8.11716V15.8828Z" fill="#009B3A"/>
<path fill-rule="evenodd" clip-rule="evenodd" d="M18.4574 12.0278L11.9828 16.2251L5.50781 12.0278L11.9828 7.83032L18.4574 12.0278Z" fill="#FEDF00"/>
<path fill-rule="evenodd" clip-rule="evenodd" d="M10.6918 10.9514C12.1704 10.9514 13.4959 11.5017 14.4007 12.3722C14.3911 12.441 14.3791 12.5091 14.3646 12.5762C14.4043 12.3996 14.427 12.2165 14.427 12.028C14.427 10.6626 13.3325 9.55591 11.9819 9.55591C10.9825 9.55591 10.1247 10.1627 9.74512 11.031C10.0521 10.9807 10.3675 10.9514 10.6918 10.9514" fill="#002776"/>
<path fill-rule="evenodd" clip-rule="evenodd" d="M10.5272 11.2846C10.2207 11.2846 9.92191 11.3108 9.63087 11.356C9.64469 11.3076 9.65974 11.2597 9.67599 11.2122C9.58455 11.4741 9.53759 11.7498 9.53711 12.0276C9.53711 13.3931 10.632 14.4998 11.9823 14.4998C13.0734 14.4998 13.9968 13.7769 14.3114 12.7792C13.4064 11.8659 12.047 11.2846 10.5272 11.2846Z" fill="#002776"/>
<path fill-rule="evenodd" clip-rule="evenodd" d="M9.69531 11.0774C9.71107 11.0346 9.72731 10.992 9.74531 10.9504C9.72723 10.992 9.71147 11.0346 9.69531 11.0774Z" fill="#2880B9"/>
</g>
<defs>
<clipPath id="clip0">
<rect x="4" y="6.5" width="16" height="11" fill="white"/>
</clipPath>
</defs>
</svg>

<svg width="24" height="24" fill="none" xmlns="http://www.w3.org/2000/svg">
    <path fill-rule="evenodd" clip-rule="evenodd" d="M5.5 6h13a2 2 0 012 2v8a2 2 0 01-2 2h-13a2 2 0 01-2-2V8a2 2 0 012-2zm0 .5A1.5 1.5 0 004 8v8a1.5 1.5 0 001.5 1.5h13A1.5 1.5 0 0020 16V8a1.5 1.5 0 00-1.5-1.5h-13z" fill="#D8DDE1"/>
    <g clip-path="url(#clip0)" fill-rule="evenodd" clip-rule="evenodd">
        <path d="M4 15.883c0 .893.716 1.617 1.6 1.617h12.8c.884 0 1.6-.724 1.6-1.617V8.117c0-.893-.716-1.617-1.6-1.617H5.6c-.884 0-1.6.724-1.6 1.617v7.766z" fill="#009B3A"/>
        <path d="M18.457 12.028l-6.474 4.197-6.475-4.197 6.475-4.198 6.474 4.198z" fill="#FEDF00"/>
        <path d="M10.692 10.951c1.478 0 2.804.55 3.709 1.421a2.794 2.794 0 01.026-.344c0-1.365-1.095-2.472-2.445-2.472-1 0-1.857.607-2.237 1.475.307-.05.623-.08.947-.08" fill="#002776"/>
        <path d="M10.527 11.285a5.83 5.83 0 00-.896.071l.045-.144a2.487 2.487 0 00-.139.816c0 1.365 1.095 2.472 2.445 2.472a2.448 2.448 0 002.33-1.72c-.906-.914-2.265-1.495-3.785-1.495z" fill="#002776"/>
        <path d="M9.695 11.077a2.46 2.46 0 01.05-.127c-.018.042-.034.085-.05.127z" fill="#2880B9"/>
    </g>
    <defs>
        <clipPath id="clip0">
            <path fill="#fff" d="M4 6.5h16v11H4z"/>
        </clipPath>
    </defs>
</svg>
